X:1
T:Vero's
L:1/8
M:4/4
I:linebreak $
K:Eb
V:1 treble 
V:1
 f4- f edB | F4- F def |{f} a4- a gfe | f4- f efg |{g} a3 g2 gfe |{f} a3 g2 gfe |{f} g4- g gfe |$ %7
 d6 z2 :: B3 B2 dBF | B3 B2 dBF |{F} A3 A2 cAG | F4- F EFG |{G} A3 G2 GFE |{F} A3 G2 GFE |$ %14
{F} G4- G GFE |1 D6 z2 :|2 D6 z E | D6- DE | F6- FE | D8- | D6 z4 || %21
